X:1
T: The Amateur Hornpipe
C:
R:Reel
I:speed 232
Q:232
K:A
M:4/4
L:1/8
|:cd|ea ec df dB|Ac EC A,C EA|df dB ce cA|FA GA B2 cd|
ea ec df dB|Ac EC A,C EA|df ed cB AG|A2 c2 A2:|
|:GA|BE GB dB GE|AA, CE Ac ec|df Bd ce Ac|((3BcB) ((3AGF) E2GA|
BE GB dB GE|Ac ec ae cA|df dB cE GB|A2a2 A2:|

